X:1
T:The Dublin Reel
Z:robin.beech@mcgill.ca
S:Victoria Bar, Glasgow
M:4/4
L:1/8
R:reel
K:D
dFFF dfef | dFFF AFEF | dFFF dfed | cABc AFEF :: 
eAAA eAfA | eAAA BAFA | eAAA egfe | dedc dABc :: 
d3c dAFA | dedB ADFA | dcde f2ed | cABc d3d :|
